X:1
T:送别
M:4/4
L:1/8
V:1
Q:1/4=80
K:C
|G2EGc4|A2cAG4|G2CDE2DC|D6z2|
w: 长 亭 外|古 道 边|芳 草 碧 连|天|
|G2EGc3B|A2c2G4|G2DEF3B,|C6z2|
w: 晚 风 拂 柳|笛 声 残| 夕 阳 山 外|山|
|A2c2c4|B2ABc4|ABcAAGEC|D8|
w: 天 之 涯|地 之 角|知 交 半 零|落|
|G2EGc3B|A2c2G4|G2DEF3B,|C6z2|
w: 一 壶 浊 酒|尽 余 欢|今 宵 别 梦|寒|